X:129
T:Debauch. JJo8.129, Le
%%VWML:JohnsonVol8-2184-p65-0
F:http://www.vwml.org/record/JohnsonVol8/2184/p65
Z:Transcribed by Simon Furey and Lewis Jones
Z:vmp.Simon Wilson 2013 www.village-music-project.org.uk
Z:Dance added by John Chambers 2017
M:C|
L:1/8
%Q:1/2=100
K:Bb
|:\
dcde d2d2 | cBcd c2c2 | BABc d2B2 | A2G2 ^F2D2 |\
dcde d4 | cBcd c4 | BABcd2G2 | A2G^FG4 :|
|:\
fefgf2e2 | d2c2B4 | b2B2Tc2B2 | ABcAB2D2 |\
E2c2F2B2 | ABcAB2D2 | E2c2F2B2 | ABcAB3c |
dcded4 | cBcdc4 | BABcd2B2 | A2G2^F2D2 |\
dcded2b2 | cBcdc2a2 | BABcB2g2 | B2A2G4 :|
W: First and 2d Cu. Right hands across half round,
W:Left hands back again .| 1st Cu. cast off, lead thro'
W:the 3d Cu. and cast up :| 1st Man whole figure
W:at Bottom, hist Partner the same at top at the
W:same time, lead thro' the top and cast off | hands
W:six round and Right and Left at top.
W:
T:Jolie Baiseur. JJo8.130, La
B:J.Johnson Choice Collection Vol 8 1758
Z:vmp.Simon Wilson 2013 www.village-music-project.org.uk
Z:Dance added by John Chambers 2017
M:C|
L:1/4
%Q:1/2=100
K:C
|:\
c2BA | G2c2 | Bcde | f2e2 |\
Tf2e2 | Tf2e2 | dcdB | c2C2 :|
|:\
edef | e2e2 | dcde | d2d2 |\
cBcd | c2c2 | a3c | Tc2B2 |
c2BA | G2c2 | Bcde | f2e2 |\
a2g2 | Tf2e2 | dcdB | c2C2 :|
W: First and 2d Cu. set and change
W:Places .| the same back again :|
W:Cross over two Cu. lead to the top
W:and cast off |. Back to Back and
W:Right and Left at top :|:
W:
